X:1
T:Lambeth (Akeroyd), 88.88.88
T:Lambeth (Akeroyd), 88.88.88
T:Samuel Akeroyd, in the “Divine Companion,” 1722
T:Public Domain Courtesy of the Cyber Hymnal™
C:Samuel Akeroyd, in the “Divine Companion,” 1722
Z:Public Domain
Z:Courtesy of the Cyber Hymnal™
%%score ( 1 2 ) ( 3 4 )
L:1/8
Q:1/4=115
M:none
K:G
V:1 treble 
V:2 treble 
V:3 bass 
V:4 bass 
V:1
 [DG]2 | [GB]2 [GB]2 (Bc) [Ad]2 | (de) (d^c) [Fd]4 | [Ge]2 [Ge][Gd] [Fc]2 [Fc]2 | %4
 [Gc]2 [GB]2 [FA]4 | [GB]2 [GB][FB] [Ec]2 [Dc]2 | [DB]2 [E^c]2 [Fd]4 | z2 [EG]2 [EA]2 [DF]2 | %8
 [B,E]2 [B,D]2 [A,D]2 [A,^C]2 x | !fermata![A,D]4 | [FA]2 [FA][FA] | [FA]2 [GB]2 (cB) (AG) | %12
 [DF]2 [Fd]2 [Ec]2 [DB]2 | [EA]2 [EG]2 G2 z x3 | [B,G]6 |] %15
V:2
 x2 | x4 G2 x2 | G2 G2 x4 | x8 | x8 | x8 | x8 | x8 | x9 | x4 | x4 | x4 A2 E2 | x8 | x4 D3 (F2 C) | %14
 x6 |] %15
V:3
 [G,B,]2 | [G,D]2 [G,D]2 [G,D]2 [F,D]2 | [E,B,]2 A,2 [D,A,]4 | %3
 [C,C]2 [B,,G,][B,,D] [A,,D]2 [A,,D]2 | [G,,D]2 [B,,D]2 [D,D]4 | [G,D]2 G,G, [G,A,]2 [F,A,]2 | %6
 ([G,B,][F,A,]) [E,G,]2 [D,A,]4 | z2 [E,E]2 [^C,A,]2 [D,A,]2 | G,3 z F, [A,,E,]2 [A,,E,]2 | %9
 !fermata![D,F,]4 | [D,D]2 [D,D][D,D] | [C,D]2 [B,,D]2 (ED) (CB,) | %12
 [D,A,]2 [B,,B,]2 ([E,G,][F,A,]) [G,B,]2 | C2 [C,B,]2 [D,A,]2 [D,A,]2 x2 | [G,,G,]6 |] %15
V:4
 x2 | x8 | x2 A,2 x4 | x8 | x8 | x2 G,G, x4 | x8 | x8 | G,,2 G,,2 x5 | x4 | x4 | x4 A,,2 C,2 | x8 | %13
 (A,,B,,) x8 | x6 |] %15

